<?xml version="1.0" encoding="UTF-8"?>
<map version="1.10" tiledversion="1.12.1" orientation="orthogonal" renderorder="right-down" width="26" height="14" tilewidth="32" tileheight="32" infinite="0" nextlayerid="5" nextobjectid="7">
 <tileset firstgid="1" name="Terrain (32x32)" tilewidth="32" tileheight="32" tilecount="247" columns="19">
  <image source="../res/Kings and Pigs/Sprites/14-TileSets/Terrain (32x32).png" width="608" height="416"/>
  <wangsets>
   <wangset name="Brick" type="corner" tile="100">
    <wangcolor name="" color="#ff0000" tile="40" probability="1"/>
    <wangcolor name="" color="#00ff00" tile="21" probability="1"/>
    <wangtile tileid="20" wangid="0,2,0,1,0,2,0,2"/>
    <wangtile tileid="21" wangid="0,2,0,1,0,1,0,2"/>
    <wangtile tileid="22" wangid="0,2,0,2,0,1,0,2"/>
    <wangtile tileid="26" wangid="0,1,0,2,0,1,0,1"/>
    <wangtile tileid="27" wangid="0,1,0,1,0,2,0,1"/>
    <wangtile tileid="39" wangid="0,1,0,1,0,2,0,2"/>
    <wangtile tileid="40" wangid="0,1,0,1,0,1,0,1"/>
    <wangtile tileid="41" wangid="0,2,0,2,0,1,0,1"/>
    <wangtile tileid="45" wangid="0,2,0,1,0,1,0,1"/>
    <wangtile tileid="46" wangid="0,1,0,1,0,1,0,2"/>
    <wangtile tileid="58" wangid="0,1,0,2,0,2,0,2"/>
    <wangtile tileid="59" wangid="0,1,0,2,0,2,0,1"/>
    <wangtile tileid="60" wangid="0,2,0,2,0,2,0,1"/>
   </wangset>
  </wangsets>
 </tileset>
 <tileset firstgid="248" name="Decorations (32x32)" tilewidth="32" tileheight="32" tilecount="42" columns="7">
  <image source="../res/Kings and Pigs/Sprites/14-TileSets/Decorations (32x32).png" width="224" height="192"/>
 </tileset>
 <layer id="1" name="Terrain" width="26" height="14" locked="1">
  <data encoding="csv">
41,41,41,41,41,41,41,41,41,41,41,41,41,41,41,41,41,41,41,41,41,41,41,41,41,41,
41,41,27,60,60,60,60,28,41,41,41,41,41,41,41,27,60,60,60,60,60,60,60,60,28,41,
41,27,61,0,0,0,0,59,60,28,41,41,27,60,60,61,0,0,0,0,0,0,0,0,40,41,
41,42,0,0,0,0,0,0,0,59,60,60,61,0,0,0,0,0,0,0,0,0,0,0,40,41,
41,42,0,0,0,0,0,0,0,0,119,0,0,0,0,0,0,0,0,0,0,0,0,0,40,41,
41,42,0,0,0,0,0,0,0,0,0,0,0,0,0,0,0,0,0,0,0,0,0,0,40,41,
41,42,0,0,0,0,0,0,0,0,119,0,0,0,0,0,0,0,0,0,0,0,0,0,40,41,
41,42,0,0,0,0,0,0,0,0,0,0,0,0,0,0,0,0,0,0,0,0,0,0,40,41,
41,42,0,0,0,0,0,0,0,0,0,0,0,0,0,0,0,0,0,0,0,0,0,0,40,41,
41,42,0,0,0,0,0,0,0,0,0,0,0,0,21,22,22,23,0,0,0,0,0,0,40,41,
41,42,0,0,119,119,0,0,0,0,0,0,21,22,47,41,41,46,23,0,0,0,0,0,40,41,
41,46,23,0,0,0,0,0,0,0,0,0,40,41,41,41,41,41,46,22,22,22,22,22,47,41,
41,41,46,22,22,22,22,22,22,22,22,22,47,41,41,41,41,41,41,41,41,41,41,41,41,41,
41,41,41,41,41,41,41,41,41,41,41,41,41,41,41,41,41,41,41,41,41,41,41,41,41,41
</data>
 </layer>
 <layer id="3" name="Background" width="26" height="14" locked="1">
  <data encoding="csv">
0,0,0,0,0,0,0,0,0,0,0,0,0,0,0,0,0,0,0,0,0,0,0,0,0,0,
0,0,0,0,0,0,0,0,0,0,0,0,0,0,0,0,0,0,0,0,0,0,0,0,0,0,
0,0,0,135,136,136,137,0,0,0,0,0,0,0,0,0,135,136,136,136,136,136,136,137,0,0,
0,0,135,161,155,155,160,136,137,0,0,0,0,135,136,136,161,155,155,155,155,155,155,156,0,0,
0,0,154,155,155,155,155,155,160,136,136,136,136,161,155,155,155,155,155,155,155,155,155,156,0,0,
0,0,154,155,155,155,155,155,155,155,155,155,155,155,155,155,155,155,155,155,155,155,155,156,0,0,
0,0,154,155,155,155,155,155,155,155,155,155,155,155,155,155,155,155,155,155,155,155,155,156,0,0,
0,0,154,155,155,155,155,155,155,155,155,155,155,155,155,155,155,155,155,155,155,155,155,156,0,0,
0,0,154,155,155,155,155,155,155,155,155,155,155,141,174,174,174,174,142,155,155,155,155,156,0,0,
0,0,154,155,155,155,155,155,155,155,155,141,174,175,0,0,0,0,173,142,155,155,155,156,0,0,
0,0,173,142,155,155,155,155,155,155,155,156,0,0,0,0,0,0,0,173,174,174,174,175,0,0,
0,0,0,173,174,174,174,174,174,174,174,175,0,0,0,0,0,0,0,0,0,0,0,0,0,0,
0,0,0,0,0,0,0,0,0,0,0,0,0,0,0,0,0,0,0,0,0,0,0,0,0,0,
0,0,0,0,0,0,0,0,0,0,0,0,0,0,0,0,0,0,0,0,0,0,0,0,0,0
</data>
 </layer>
 <layer id="4" name="Decoration" width="26" height="14" locked="1">
  <data encoding="csv">
0,0,0,0,0,0,0,0,0,0,0,0,0,0,0,0,0,0,0,0,0,0,0,0,0,0,
0,0,0,0,0,0,0,0,0,0,0,0,0,0,0,0,0,0,0,0,0,0,0,0,0,0,
0,0,0,0,0,0,0,0,0,0,0,0,0,0,0,0,256,0,0,0,0,0,0,256,0,0,
0,0,256,0,271,272,0,0,256,0,0,0,0,256,0,0,263,0,0,271,272,0,0,263,0,0,
0,0,263,0,278,279,0,0,263,0,0,0,0,263,0,0,270,0,0,278,279,0,0,270,0,0,
0,0,270,0,257,258,0,0,270,0,0,0,0,270,0,0,277,0,0,257,258,0,0,277,0,0,
0,0,277,0,0,0,0,0,277,0,271,272,0,277,0,0,0,0,0,0,0,0,0,0,0,0,
0,0,0,0,0,264,265,266,0,0,278,279,0,0,0,0,0,0,0,0,264,265,266,0,0,0,
0,0,0,0,0,0,0,0,0,0,257,258,0,0,0,0,0,0,0,0,0,0,0,0,0,0,
0,0,0,0,0,0,0,0,0,0,0,0,0,0,0,0,0,0,0,0,0,0,0,0,0,0,
0,0,0,0,0,0,0,0,0,0,0,0,0,0,0,0,0,0,0,0,0,0,0,0,0,0,
0,0,0,0,0,0,0,0,0,0,0,0,0,0,0,0,0,0,0,0,0,0,0,0,0,0,
0,0,0,0,0,0,0,0,0,0,0,0,0,0,0,0,0,0,0,0,0,0,0,0,0,0,
0,0,0,0,0,0,0,0,0,0,0,0,0,0,0,0,0,0,0,0,0,0,0,0,0,0
</data>
 </layer>
 <objectgroup id="2" name="Object Layer 1" locked="1">
  <object id="3" name="player" x="146" y="371.333"/>
  <object id="4" name="pig" x="508" y="275.333"/>
  <object id="5" name="pig" x="648.667" y="339.333" height="0.666667"/>
  <object id="6" name="door" x="714" y="340.667"/>
 </objectgroup>
</map>
